X: 1
T: Miss Campbell of Sadell's Strathspey   (C)
C: Robert Mackintosh (1796)
R: strathspey
B: RSCDS 47-12
B: Robert Macintosh's 3rd Collection, 1796
N: Tune for The Mentor
Z: 2014 John Chambers <jc:trillian.mit.edu>
M: C
L: 1/16
K: C
ed |\
"C"ce3 e3d "Am"c2B2 c4 | "Dm"A2fe d3c "G7"BG3 G3d |\
"C"e3f "E7"e3d "Am"c3B "C"c3G | "F"AF3 "G7"D3G "C"E2C2 C2 :|
cd |\
"C"ec3 "Dm"af3 "G7"d2ef "C"g4 | "Am"c3A "Dm"fedc "G"BG3 "C"G3c |\
"F"AF3 dF3 "G7"G2AB "C"c3E | "Dm"F2GA "G7"G3F "C"E2C2 C2 |]
cd |\
"C"ec3 "Dm"af3 "G7"dB3 "C"ge3 | "Am"cA3 "D7"d3c "G"BG3 "C"G3c |\
"F"AF3 af3 "G7"g2B2 "C"cG3 | "F"A3F "G7"D3G "C"EC3 C2 |]
%%center Book47/Miss_Campbell_of_Sadells_Strathspey-C-16-4.abc

%%sep 1 1 500
%%sep 1 1 500

